common/svg/deployment-icon.svg

<svg fill="none" height="20" viewBox="0 0 20 20" width="20" xmlns="http://www.w3.org/2000/svg"><path d="m2 2c-1.104569 0-2 .89543-2 2v12c0 1.1046.895431 2 2 2h7v-8.25258l-2.95972 2.95968c-.39053.3906-1.02369.3906-1.41422 0-.39052-.3905-.39052-1.0236 0-1.4142l4.66667-4.66663c.1135-.1135.24749-.19401.39006-.24154.09197-.03074.18989-.04848.29158-.05103.00951-.00024.01903-.00035.02853-.00032.2805.0008.5338.11705.7149.30372l4.6558 4.6558c.3905.3906.3905 1.0237 0 1.4142-.3905.3906-1.0237.3906-1.4142 0l-2.9594-2.95935v8.25225h7c1.1046 0 2-.8954 2-2v-12c0-1.10457-.8954-2-2-2z" fill="#000"/></svg>

<svg width="20" height="20" viewBox="0 0 20 20" fill="none" xmlns="http://www.w3.org/2000/svg">
<path d="M2 2C0.895431 2 0 2.89543 0 4V16C0 17.1046 0.895431 18 2 18H9V9.74742L6.04028 12.7071C5.64975 13.0977 5.01659 13.0977 4.62606 12.7071C4.23554 12.3166 4.23554 11.6835 4.62606 11.2929L9.29273 6.62627C9.40623 6.51277 9.54022 6.43226 9.68279 6.38473C9.77476 6.35399 9.87268 6.33625 9.97437 6.3337C9.98388 6.33346 9.9934 6.33335 10.0029 6.33338C10.2834 6.33418 10.5367 6.45043 10.7178 6.6371L15.3736 11.2929C15.7641 11.6835 15.7641 12.3166 15.3736 12.7071C14.9831 13.0977 14.3499 13.0977 13.9594 12.7071L11 9.74775V18H18C19.1046 18 20 17.1046 20 16V4C20 2.89543 19.1046 2 18 2H2Z" fill="black"/>
</svg>
